localPackages/DesignSystem/Sources/DesignSystem/Resources/Assets.xcassets/IconSet/ic-brand-paypal.imageset/ic-brand-paypal.svg

<svg width="24" height="24" viewBox="0 0 24 24" fill="none" xmlns="http://www.w3.org/2000/svg">
<g id="ic-brand-paypal">
<path id="Icon" fill-rule="evenodd" clip-rule="evenodd" d="M18.787 5.24463C18.1185 3.01256 16.0574 1.48777 13.7254 1.50011H5.25C4.37666 1.49025 3.62953 2.12472 3.49858 2.98742L1.53548 18.7354C1.42893 19.2563 1.56525 19.7974 1.90596 20.2059C2.24667 20.6143 2.7548 20.8459 3.2869 20.8351H6.78974C6.78122 21.2642 6.93081 21.6814 7.21008 22.0075C7.56055 22.3464 8.03661 22.5239 8.52365 22.4974H13.6553L14.531 17.2481H15.4943C19.3634 17.2481 22.5 14.1145 22.5 10.249C22.4938 7.94817 20.9887 5.91953 18.787 5.24463ZM17.2808 6.74943C17.2808 9.64855 14.9283 11.9988 12.0265 11.9988H9.50445L10.0999 6.74943H17.2808ZM8.36602 6.55696L6.96489 18.9978H3.2869L5.25 3.24989H13.7254C14.988 3.2386 16.1591 3.90712 16.7904 4.99966H10.0999C9.20984 5.00316 8.46393 5.67309 8.36602 6.55696ZM15.4943 15.4983H13.0423L12.1666 20.7476H8.52365L9.31179 13.7485H11.9564C15.6482 13.7569 18.7129 10.9017 18.9621 7.22187C20.0718 7.82834 20.768 8.9854 20.7836 10.249C20.7836 11.6473 20.2253 12.9878 19.2323 13.9732C18.2393 14.9587 16.8939 15.5076 15.4943 15.4983Z" fill="#0F0F0F"/>
</g>
</svg>

<svg xmlns="http://www.w3.org/2000/svg" width="24" height="24" viewBox="0 0 24 24">
  <g class="ic-brand-paypal">
    <path fill-rule="evenodd" d="M18.787 5.245A5.254 5.254 0 0 0 13.725 1.5H5.25a1.75 1.75 0 0 0-1.751 1.487L1.535 18.735a1.749 1.749 0 0 0 1.752 2.1H6.79c-.009.43.14.846.42 1.172.35.34.827.517 1.314.49h5.131l.876-5.249h.963A7.002 7.002 0 0 0 22.5 10.25a5.25 5.25 0 0 0-3.713-5.004Zm-1.506 1.504c0 2.9-2.353 5.25-5.254 5.25H9.504l.596-5.25h7.18Zm-8.915-.192-1.401 12.44H3.287L5.25 3.25h8.475A3.504 3.504 0 0 1 16.79 5H10.1a1.75 1.75 0 0 0-1.734 1.557Zm7.128 8.941h-2.452l-.875 5.25H8.524l.788-7h2.644a7.003 7.003 0 0 0 7.006-6.526 3.5 3.5 0 0 1 1.822 3.027 5.247 5.247 0 0 1-1.552 3.724 5.257 5.257 0 0 1-3.738 1.525Z" class="Icon"/>
  </g>
</svg>
